packages/kaspersky-hexa-ui-icons/src/iconsSVGs/16/Grid.svg

<svg width="16" height="16" viewBox="0 0 16 16" fill="none" xmlns="http://www.w3.org/2000/svg">
<path fill-rule="evenodd" clip-rule="evenodd" d="M2.74491 1.27905C1.94409 1.27905 1.29491 1.92824 1.29491 2.72905V5.75442C1.29491 6.55523 1.94409 7.20442 2.74491 7.20442H4.21507C5.01589 7.20442 5.66507 6.55523 5.66507 5.75442V2.72905C5.66507 1.92824 5.01589 1.27905 4.21507 1.27905H2.74491ZM2.59491 2.72905C2.59491 2.64621 2.66206 2.57905 2.74491 2.57905H4.21507C4.29792 2.57905 4.36507 2.64621 4.36507 2.72905V5.75442C4.36507 5.83726 4.29792 5.90442 4.21507 5.90442H2.74491C2.66206 5.90442 2.59491 5.83726 2.59491 5.75442V2.72905Z" fill="black"/>
<path fill-rule="evenodd" clip-rule="evenodd" d="M13.2553 8.79547C14.0561 8.79547 14.7053 9.44466 14.7053 10.2455V13.2708C14.7053 14.0716 14.0561 14.7208 13.2553 14.7208H11.7851C10.9843 14.7208 10.3351 14.0716 10.3351 13.2708V10.2455C10.3351 9.44466 10.9843 8.79547 11.7851 8.79547H13.2553ZM13.4053 10.2455C13.4053 10.1626 13.3381 10.0955 13.2553 10.0955H11.7851C11.7022 10.0955 11.6351 10.1626 11.6351 10.2455V13.2708C11.6351 13.3537 11.7022 13.4208 11.7851 13.4208H13.2553C13.3381 13.4208 13.4053 13.3537 13.4053 13.2708V10.2455Z" fill="black"/>
<path fill-rule="evenodd" clip-rule="evenodd" d="M7.26536 2.72905C7.26536 1.92824 7.91455 1.27905 8.71536 1.27905H13.2571C14.0579 1.27905 14.7071 1.92824 14.7071 2.72905V5.75442C14.7071 6.55523 14.0579 7.20442 13.2571 7.20442H8.71536C7.91455 7.20442 7.26536 6.55523 7.26536 5.75442V2.72905ZM8.71536 2.57905C8.63252 2.57905 8.56536 2.64621 8.56536 2.72905V5.75442C8.56536 5.83726 8.63252 5.90442 8.71536 5.90442H13.2571C13.3399 5.90442 13.4071 5.83726 13.4071 5.75442V2.72905C13.4071 2.64621 13.3399 2.57905 13.2571 2.57905H8.71536Z" fill="black"/>
<path fill-rule="evenodd" clip-rule="evenodd" d="M7.28468 8.79547C8.08549 8.79547 8.73468 9.44466 8.73468 10.2455V13.2708C8.73468 14.0716 8.08549 14.7208 7.28468 14.7208H2.74297C1.94216 14.7208 1.29297 14.0716 1.29297 13.2708V10.2455C1.29297 9.44466 1.94216 8.79547 2.74297 8.79547H7.28468ZM7.43468 10.2455C7.43468 10.1626 7.36752 10.0955 7.28468 10.0955H2.74297C2.66013 10.0955 2.59297 10.1626 2.59297 10.2455V13.2708C2.59297 13.3537 2.66013 13.4208 2.74297 13.4208H7.28468C7.36752 13.4208 7.43468 13.3537 7.43468 13.2708V10.2455Z" fill="black"/>
</svg>

<svg xmlns="http://www.w3.org/2000/svg" width="16" height="16" fill="none" viewBox="0 0 16 16"><path fill="#000" fill-rule="evenodd" d="M2.745 1.279c-.801 0-1.45.6492-1.45 1.45v3.0254c0 .8008.649 1.45 1.45 1.45h1.47c.8009 0 1.45-.6492 1.45-1.45V2.729c0-.8008-.6491-1.45-1.45-1.45zm4.5204 1.45c0-.8008.6492-1.45 1.45-1.45h4.5417c.8008 0 1.45.6492 1.45 1.45v3.0254c0 .8008-.6492 1.45-1.45 1.45H8.7154c-.8009 0-1.45-.6492-1.45-1.45zm-4.6705 0a.15.15 0 0 1 .15-.15h1.4702a.15.15 0 0 1 .15.15v3.0254a.15.15 0 0 1-.15.15H2.7449a.15.15 0 0 1-.15-.15zm6.1205-.15a.15.15 0 0 0-.15.15v3.0254a.15.15 0 0 0 .15.15h4.5417a.15.15 0 0 0 .15-.15V2.729a.15.15 0 0 0-.15-.15zm4.5398 6.2165c.8009 0 1.45.6491 1.45 1.45v3.0253c0 .8009-.6491 1.45-1.45 1.45h-1.4701c-.8008 0-1.45-.6491-1.45-1.45v-3.0253c0-.8009.6492-1.45 1.45-1.45zm-5.9705 0c.8008 0 1.45.6491 1.45 1.45v3.0253c0 .8009-.6492 1.45-1.45 1.45H2.743c-.8008 0-1.45-.6491-1.45-1.45v-3.0253c0-.8009.6492-1.45 1.45-1.45zm6.1205 1.45a.15.15 0 0 0-.15-.15h-1.4701a.15.15 0 0 0-.15.15v3.0253a.15.15 0 0 0 .15.15h1.4701a.15.15 0 0 0 .15-.15zm-5.9705 0a.15.15 0 0 0-.15-.15H2.743a.15.15 0 0 0-.15.15v3.0253a.15.15 0 0 0 .15.15h4.5417a.15.15 0 0 0 .15-.15z"/></svg>
